X:1
T:joy to the world
%%score { ( 1 2 ) | ( 3 4 ) }
L:1/8
M:2/2
K:D
V:1 treble nm="Piano" snm="Pno"
V:2 treble 
V:3 bass 
V:4 bass 
V:1
"D" d4 c3 B |"C" A6"Em" G2 |"D" F4"A" E4 |"D" D4 z2 A2 |"G" B6 B2 |"A" c6 c2 | %6
w: Joy to the|world, the|Lord is|come Let|earth re|ceive her|
"D" !stemless![Fd]8- | d4 z2 d2 |"D" d2 c2 B2 A2 | A3 G F2 d2 | d2 c2 B2 A2 | A3 G F2 F2 | %12
w: King|* Let|ev- * * ry|heart * * pre|pare * him *|room * * and|
 F2 F2 F2 FG | A4 z2 GF |"A" E2 E2 E2 E F | G4 z2 FE |"D" D2 d4 B2 x | A3 G F2"Em" G2 | %18
w: Heaven and na ture *|sing And *|Heaven and na ture *|sing And *|Hea ven, and|Hea * ven, and|
"D" F4"A" E4 |"D" D4 z4 |] %20
w: na ture|sing|
V:2
 F4 A3 G | F6 E2 | D4 C4 | D4 x2 D2 | G6 G2 | E6 E2 | x8 | F4 x2 F2 | F2 A2 G2 F2 | F3 E D2 F2 | %10
 F2 A2 G2 F2 | F3 E D2 D2 | D2 D2 D2 DE | F4 x2 ED | C2 C2 C2 C D | x6 DC | D2 F4 G2 x | %17
 F3 E D2 E2 | D4 C4 | D4 x4 |] %20
V:3
 A,4 D3 D | D6 B,2 | A,6 G,2 | F,4 x2 D2 | D6 D2 | A,6 A,2 | !stemless![D,A,]8- | A,4 x2 A,2 | %8
w: ||||||||
 A,4 D4 | D6 A,2 | A,4 D4 | D6 x2 | z6 A,2 | A,2 A,2 A,2 A,2 | A,6 A,,2 | A,4 z2 A, G, | %16
w: ||||And|Heaven and na ture|||
 F,3 A,4 D2 | D6 B,2 | A,4 A,2 G,2 | F,4 x4 |] %20
w: ||||
V:4
 D,4 D,3 D, | D,6 G,,2 | A,,4 A,,4 | D,4 z2 F,2 | G,6 G,2 | A,6 A,2 | x8 | D,4 z2 D,2 | D,4 D,4 | %9
w: |||||||||
 D,6 D,2 | D,4 D,4 | D,6 z2 | x6 D,2 | D,2 D,2 D,2 D,2 | x8 | A,,2 A,,2 A,,2 A,,2 | D,6 x D,2 | %17
w: ||||||Heaven and na ture|sing *|
 D,6 G,,2 | A,,4 A,,4 | D,4 z4 |] %20
w: |||

